X:1
T:Long Weekend
C:Megan Wobus
S:Megan Wobus composed 10/10/2002
M:6/8
R:jig
K:D
|: Afe gfd  | Daf gfd | _Bf(B A)ce | gfe dcB |
Afe gfd  | Daf gfd | _BfB Ace | dAF D2F :|
|: EGE BGE | DFD BFD | EAE cAE | DGD BGD  |
 EGB gfe | DFA fed | EAc aec | DGB gdB :|
W:Copyright 2002 Megan Wobus, PGTPPCATPL AORR
